packages/icons/svg/Fill/headphones.svg

<svg fill="none" height="24" viewBox="0 0 24 24" width="24" xmlns="http://www.w3.org/2000/svg"><path clip-rule="evenodd" d="m12 2c-5.51397 0-9.99997 4.65-9.99997 10.366v4.634c0 2.206 1.794 4 4 4s3.99997-1.794 3.99997-4-1.79397-4-3.99997-4c-.732 0-1.409.212-2 .557v-1.191c0-4.613 3.589-8.366 7.99997-8.366 4.411 0 8 3.753 8 8.366v1.191c-.591-.345-1.268-.557-2-.557-2.206 0-4 1.794-4 4s1.794 4 4 4 4-1.794 4-4v-4.634c0-5.716-4.486-10.366-10-10.366" fill="#6b7280" fill-rule="evenodd"/></svg>

<svg width="24" height="24" viewBox="0 0 24 24" fill="none" xmlns="http://www.w3.org/2000/svg">
<g id="Icon/Fill/headphones">
<path id="Mask" fill-rule="evenodd" clip-rule="evenodd" d="M12 2C6.486 2 2 6.65 2 12.366V17C2 19.206 3.794 21 6 21C8.206 21 10 19.206 10 17C10 14.794 8.206 13 6 13C5.268 13 4.591 13.212 4 13.557V12.366C4 7.753 7.589 4 12 4C16.411 4 20 7.753 20 12.366V13.557C19.409 13.212 18.732 13 18 13C15.794 13 14 14.794 14 17C14 19.206 15.794 21 18 21C20.206 21 22 19.206 22 17V12.366C22 6.65 17.514 2 12 2Z" fill="#000000"/>
</g>
</svg>
